X:1
T:Wer ist und wird genennt
T:André Vierendeels
T:Melody by Georg Vogler (1625) (Soprano voice)
T:Source : Catechismus---Würzburg---J.Volmari---1652. Editor : André Vierendeels (15/10/17).
T:Notes : Original clef : C1, other voices supplied editorially Original note values have been halved Text Middle german
T:Wer ist und wird genennt
T:©
T:©
T:©
C:André Vierendeels
Z:©
%%score [ 1 2 3 ]
L:1/8
Q:1/4=90
M:2/2
K:C
V:1 treble nm="Soprano" snm="S"
V:2 treble-8 nm="Tenor" snm="T"
V:3 bass nm="Bass" snm="B"
V:1
"^1)" A4 A2 A2 | G2 G2 F2 E2 | !fermata!D4 A4 | A2 G2 c2 A2 | F2 G2 !fermata!A4 | A4 A2 F2 | %6
w: Wer ist, und|wird ge- nennt ein|Christ, so|recht und gut Ca-|tho- lisch ist?|Der ist ein|
w: Bey was War-|zei- chen werd er-|kennt, ob|man sich recht Ca-|tho- lisch nennt?|Wann man sich|
 G2 A2 F2 E2 | !fermata!D4 A4 | A2 G2 c2 A2 | F2 G2 !fermata!A4 | A4 c2 d2 | d2 e2 d2 ^c2 | %12
w: recht Ca- tho- lisch'r|Christ, wel-|cher nach dem er|tauf- fet ist,|durch auss al-|les glaubt und be-|
w: zeich- net mit dem|Creutz, setzt|Irz- thumb Ket- ze-|rey be- seyts:|meldt was die|Leh- rer al- le-|
 !fermata!d4 d4 | e2 d2 c2 B2 | A2 ^G2 !fermata!A4 | d4 c2 B2 | c2 A2 A2 G2 | !fermata!F4 A4 | %18
w: kennt, was|die Uhr- al- te|Kirch be- nennt,|die Rö- misch|und Ca- tho- lisch|ist, ob|
w: sampt, ein-|dach- tig- lich im|gmein ver- dampt,|und spricht: im|Na- men (wie du|weist), desz|
 _B2 A2 F2 G2 | F2 E2 !fermata!D4 |] %20
w: mans schon in der|Schrifft nit list.|
w: Vat- ters, Sohns, und|heil- ge Geists.|
V:2
"^2)""^1)" e4 f2 d2 | d2 B2 A2 c2 | !fermata!A4 c4 | f2 d2 e2 f2 | c2 B2 !fermata!c4 | c4 f2 c2 | %6
w: Wer ist, und|wird ge- nennt ein|Christ, so|recht und gut Ca-|tho- lisch ist?|Der ist ein|
w: Sag wie viel|seyn der Haupt- stück|wol, die|je- der bil- lich|wis- sen soll?|Fünff, Glaub, Hoff-|
 B2 A2 d2 e2 | !fermata!A4 c4 | f2 d2 e2 f2 | c2 B2 !fermata!c4 | f4 e2 d2 | f2 e2 d2 e2 | %12
w: recht Ca- tho- lisch'r|Christ, wel-|ches nach dem er|tauf- fet ist,|durch auss al-|les glaubt und be-|
w: nung, Lieb, Sa- cra-|ment, Ge-|rech- tig- keit, sey|uns be- nennt,|fünff sag ich,|sey- en in der|
 !fermata!f4 f4 | g2 f2 e2 d2 | c2 B2 !fermata!e4 | f4 g2 d2 | e2 c2 f2 e2 | !fermata!c4 d4 | %18
w: kennt, was|die Uhr- al- te|Kirch be- nennt,|die Rö- misch|und Ca- tho- lisch|ist, ob|
w: Zahl wie|ins die Kirch lehrt|ü- ber- all,|durch wel- che|wir auff die- ser|Erdn, Gott|
 d2 f2 d2 e2 | d2 ^c2 !fermata!A4 |] %20
w: mans schon in der|Schrifft nit list.|
w: gfal- len, und jetzt|se- lig werdn.|
V:3
"^3)""^1)""^4)" A,,4 D,2 D,2 | G,2 G,2 D,2 C,2 | !fermata!D,4 F,4 | D,2 G,2 C,2 D,2 | %4
w: Wer ist, und|wird ge- nennt ein|Christ, so|recht und gut Ca-|
w: Was ist der|Glaub, sag an mein|Christ, die-|weil der Glaub das|
 F,2 E,2 !fermata!A,,4 | A,,4 D,2 F,2 | E,2 F,2 D,2 C,2 | !fermata!D,4 A,,4 | D,2 G,2 C,2 D,2 | %9
w: tho- lisch ist?|Der ist ein|recht Ca- tho- lisch'r|Christ, wel-|ches nach dem er|
w: erst Stück ist?|Er ist ein|Gab Got- tes und|Liecht, dar-|durch der Mensch er-|
 F,2 E,2 !fermata!A,,4 | D,4 C,2 G,2 | D,2 C,2 G,2 A,2 | !fermata!D,4 D,4 | C,2 B,,2 C,2 G,2 | %14
w: tauf- fet ist,|durch auss al-|les glaubt und be-|kennt, was|die Uhr- al- te|
w: leuch- tet, sicht|Und fes- tig-|lich glaubt al- les,|das es|von Gott of- fen-|
 A,2 E,2 !fermata!A,,4 | D,4 E,2 G,2 | A,2 F,2 C,2 C,2 | !fermata!F,4 D,4 | G,2 D,2 D,2 C,2 | %19
w: Kirch be- nennt,|die Rö- misch|und Ca- tho- lisch|ist, ob|mans schon in der|
w: bah- ret was,|und durch die|Christ- lich Kirch für-|gstelt, zu|glau- ben und zu|
 D,2 A,2 !fermata!D,4 |] %20
w: Schrifft nit list.|
w: wis- sen helt.|

